packages/icons/svg/24/FormatLetterSpacing.svg

<svg width="24" height="24" viewBox="0 0 24 24" fill="none" xmlns="http://www.w3.org/2000/svg">
<path fill-rule="evenodd" clip-rule="evenodd" d="M6.10774 16.8077C6.10774 16.3577 5.56774 16.1377 5.25774 16.4577L2.95774 18.7477C2.75774 18.9477 2.75774 19.2577 2.95774 19.4577L5.25774 21.7477C5.56774 22.0577 6.10774 21.8377 6.10774 21.3877V20.0977H18.1077V21.3877C18.1077 21.8377 18.6477 22.0577 18.9577 21.7377L21.2477 19.4477C21.4477 19.2477 21.4477 18.9377 21.2477 18.7377L18.9577 16.4477C18.6477 16.1377 18.1077 16.3577 18.1077 16.8077V18.0977H6.10774V16.8077Z" fill="#858585"/>
<path d="M6.00005 4C6.00005 3.44772 5.55233 3 5.00005 3C4.44776 3 4.00005 3.44772 4.00005 4V13C4.00005 13.5523 4.44776 14 5.00005 14C5.55233 14 6.00005 13.5523 6.00005 13V4Z" fill="#858585"/>
<path d="M19 3C19.5523 3 20 3.44772 20 4V13C20 13.5523 19.5523 14 19 14C18.4478 14 18 13.5523 18 13V4C18 3.44772 18.4478 3 19 3Z" fill="#858585"/>
<path fill-rule="evenodd" clip-rule="evenodd" d="M12 4C12.4001 4 12.7616 4.2384 12.9192 4.60608L15.9192 11.6061C16.1367 12.1137 15.9016 12.7016 15.394 12.9191C14.8863 13.1367 14.2985 12.9015 14.0809 12.3939L13.4835 11H10.5166L9.91919 12.3939C9.70164 12.9015 9.11376 13.1367 8.60613 12.9191C8.0985 12.7016 7.86335 12.1137 8.0809 11.6061L11.0809 4.60608C11.2385 4.2384 11.6 4 12 4ZM12.6264 9L12 7.53859L11.3737 9H12.6264Z" fill="#858585"/>
</svg>

<svg width="24" height="24" fill="none" xmlns="http://www.w3.org/2000/svg" viewBox="0 0 24 24"><path fill-rule="evenodd" clip-rule="evenodd" d="M6.108 16.808c0-.45-.54-.67-.85-.35l-2.3 2.29c-.2.2-.2.51 0 .71l2.3 2.29a.5.5 0 00.85-.36v-1.29h12v1.29c0 .45.54.67.85.35l2.29-2.29c.2-.2.2-.51 0-.71l-2.29-2.29a.5.5 0 00-.85.36v1.29h-12v-1.29z" fill="currentColor"></path><path d="M6 4a1 1 0 00-2 0v9a1 1 0 102 0V4zM19 3a1 1 0 011 1v9a1 1 0 11-2 0V4a1 1 0 011-1z" fill="currentColor"></path><path fill-rule="evenodd" clip-rule="evenodd" d="M12 4a1 1 0 01.92.606l3 7a1 1 0 01-1.84.788L13.484 11h-2.966l-.598 1.394a1 1 0 01-1.838-.788l3-7A1 1 0 0112 4zm.626 5L12 7.539 11.374 9h1.252z" fill="currentColor"></path></svg>
